X:86
T:score174
L:1/8
Q:1/4=96
M:4/4
I:linebreak $
K:Dmin
 f2 | e2 d2 A2 F2 | E3 F E2 d2 | A3 F AFEF |$ D4 z2 f2 | e2 d2 A2 F2 | E3 F E2 d2 |$ A3 F AFEF | %8
 D4 z4 |] %9
